assets/icons/qvision/hdr_off.svg

<svg width="24" height="24" viewBox="0 0 24 24" fill="none" xmlns="http://www.w3.org/2000/svg">
<path d="M17.4999 15V13H18.5999L19.4999 15H20.9999L20.0999 12.9C20.5999 12.7 20.9999 12.1 20.9999 11.5V10.5C20.9999 9.7 20.2999 9 19.4999 9H15.9999V13.9L17.0999 15H17.4999ZM17.4999 10.5H19.4999V11.5H17.4999V10.5ZM12.9999 10.5V10.9L14.4999 12.4V10.5C14.4999 9.7 13.7999 9 12.9999 9H11.0999L12.5999 10.5H12.9999ZM9.4999 9.5L2.4999 2.5L1.3999 3.5L6.8999 9H6.4999V11H4.4999V9H2.9999V15H4.4999V12.5H6.4999V15H7.9999V10.1L9.4999 11.6V15H12.8999L20.4999 22.6L21.5999 21.5L9.4999 9.5Z" fill="#323232"/>
</svg>

<svg xmlns="http://www.w3.org/2000/svg" height="24" viewBox="0 0 24 24" width="24"><path d="M17.5 15v-2h1.1l.9 2H21l-.9-2.1c.5-.2.9-.8.9-1.4v-1c0-.8-.7-1.5-1.5-1.5H16v4.9l1.1 1.1h.4zm0-4.5h2v1h-2v-1zm-4.5 0v.4l1.5 1.5v-1.9c0-.8-.7-1.5-1.5-1.5h-1.9l1.5 1.5h.4zm-3.5-1l-7-7-1.1 1L6.9 9h-.4v2h-2V9H3v6h1.5v-2.5h2V15H8v-4.9l1.5 1.5V15h3.4l7.6 7.6 1.1-1.1-12.1-12z"/></svg>
